dist/assets/pastl_LP.svg

<svg width="31" height="30" viewBox="0 0 31 30" fill="none" xmlns="http://www.w3.org/2000/svg">
<rect x="1.09021" y="0.5" width="29" height="29" rx="14.5" fill="#3079E1"/>
<path d="M7.97125 20.5V10.3182H10.1239V18.7251H14.489V20.5H7.97125ZM15.9146 20.5V10.3182H19.9317C20.7039 10.3182 21.3618 10.4657 21.9054 10.7607C22.4489 11.0523 22.8632 11.4583 23.1483 11.9787C23.4366 12.4957 23.5808 13.0923 23.5808 13.7685C23.5808 14.4446 23.435 15.0412 23.1433 15.5582C22.8516 16.0753 22.429 16.478 21.8755 16.7663C21.3254 17.0547 20.6592 17.1989 19.877 17.1989H17.3166V15.4737H19.529C19.9433 15.4737 20.2846 15.4025 20.5531 15.2599C20.8249 15.1141 21.0271 14.9136 21.1596 14.6584C21.2955 14.3999 21.3635 14.1032 21.3635 13.7685C21.3635 13.4304 21.2955 13.1354 21.1596 12.8835C21.0271 12.6283 20.8249 12.4311 20.5531 12.2919C20.2813 12.1494 19.9366 12.0781 19.519 12.0781H18.0673V20.5H15.9146Z" fill="white"/>
<rect x="1.09021" y="0.5" width="29" height="29" rx="14.5" stroke="white"/>
</svg>

<svg xmlns="http://www.w3.org/2000/svg" width="31" height="30" fill="none"><rect width="29" height="29" x="1.09" y=".5" fill="#3079E1" rx="14.5"/><path fill="#fff" d="M7.971 20.5V10.318h2.153v8.407h4.365V20.5H7.971Zm7.944 0V10.318h4.017c.772 0 1.43.148 1.973.443.544.291.958.697 1.243 1.218.289.517.433 1.113.433 1.79 0 .676-.146 1.272-.438 1.79-.291.516-.714.919-1.268 1.207-.55.289-1.216.433-1.998.433h-2.56v-1.725h2.212c.414 0 .756-.072 1.024-.214.272-.146.474-.346.607-.602.136-.258.203-.555.203-.89 0-.338-.067-.633-.203-.885a1.36 1.36 0 0 0-.607-.591c-.272-.143-.616-.214-1.034-.214h-1.452V20.5h-2.152Z"/><rect width="29" height="29" x="1.09" y=".5" stroke="#fff" rx="14.5"/></svg>
